apps/nuxt3-ssr/assets/minified-icons/View compact.svg

<svg fill="none" xmlns="http://www.w3.org/2000/svg" viewBox="0 0 24 24"><path d="M19.5 19.5v-3.925h-15V19.5h15Zm0-5.425v-4.15h-15v4.15h15Zm0-5.65V4.5h-15v3.925h15ZM4.5 21c-.4 0-.75-.15-1.05-.45-.3-.3-.45-.65-.45-1.05v-15c0-.4.15-.75.45-1.05.3-.3.65-.45 1.05-.45h15c.4 0 .75.15 1.05.45.3.3.45.65.45 1.05v15c0 .4-.15.75-.45 1.05-.3.3-.65.45-1.05.45h-15Z" fill="currentColor"/></svg>

<svg viewBox="0 0 24 24" fill="none" xmlns="http://www.w3.org/2000/svg"><path d="M19.5 19.5V15.575H4.5V19.5H19.5ZM19.5 14.075V9.925H4.5V14.075H19.5ZM19.5 8.425V4.5H4.5V8.425H19.5ZM4.5 21C4.1 21 3.75 20.85 3.45 20.55C3.15 20.25 3 19.9 3 19.5V4.5C3 4.1 3.15 3.75 3.45 3.45C3.75 3.15 4.1 3 4.5 3H19.5C19.9 3 20.25 3.15 20.55 3.45C20.85 3.75 21 4.1 21 4.5V19.5C21 19.9 20.85 20.25 20.55 20.55C20.25 20.85 19.9 21 19.5 21H4.5Z" fill="currentColor"/></svg>
